!!!OTL: 78. Der Kessel auf dem Feuer.
!!!ARE: Europa, Mitteleuropa, Deutschland, Schleswig
!!!SCT: K2075A
!!!YEM: Copyright 1995, estate of Helmut Schaffrath.
**kern
*clefG2
*M2/4
*k[f#]
*G:
=1
{8g
8g
8g
8b
=2
4g
4d}
=3
{8g
8g
8g
8b
=4
4g
4d}
=5
{8g
8g
4e
=6
8g
8g
8e
8e}
=7
{8g
8g
8a
8a
=8
4g
4e}
=9
{8g
8g
8g
8b
=10
8g
8g
4d}
=11
{8.dd
16cc
8b
8a
=12
8g
8g
4g}
==
!!!AGN: Kinder - Lied, Reigen, Tanz - Spiel
!!!ONB: ESAC (Essen Associative Code) Database: KINDER
!!!AMT: simple duple
!!!AIN: vox
!!!EED: Helmut Schaffrath
!!!EEV: 1.0
!!@@COMMENT:"Mündlich aus Schleswig (Achtrup) 1896. Bei Müllenhoff 484 noch der ein geklammerte ʒweite Satʒ. Die Melodie daʒu geht ſo:"
!!@@END:
!!!GTL: Zweites Buch. Kinderspiel: 2. Reigen und Tanzspiele. / A. Ringelreihen mit Niederfallen.
!!!URL-scan: https://archive.org/details/DeutschesKinderliedUndKinderspiel/page/444/mode/1up
!!!ENC: Anna Maria Matuszewska
!!!EEV: 2024/02/09
*-
